X:8
T:Grande Chêne (Schottisch) D (tinwhistle in D) solo
T:st00928 (Hanny Christen)
%%MIDI program 72   % 111 /74 / 79=whistle
R:shottishe
R:shottishe
M:2/4
L:1/16
K:D transpose=12
f2fd ffd2 | f2a2a4 | e2ec e2ec | e2a^g f2f"_#"g | a2(3a^gf e2e2 | f4d4 | f2fd f2fd | 
f2a2a4 | e2ec e2ec | e2a^g f2f"_#"g | a2(3a^gf edce | d4d2z2 || a2(3a^gf e2eg | f^gfe def=g | 
a2(3a^gf e2e2 | f4d4 | a2(3a^gf e2eg | f^gfe def=g | a2(3a^gf e2ce | d4d2z2 |]  
W:
W:for tin whistle TABs go to: 
W:http://www.mandolintab.net/abcconverter.php
W:" Tablatur: Whistle - key: D "
W:a fingering chart (advanced) you can download from:
W:http://fullbodyburn.com/wp-content/uploads/2011/07/01-D1.jpg
% June 30, 2016

